svgs/ds_krant.svg

<svg xmlns="http://www.w3.org/2000/svg" viewBox="0 0 192 192"><path d="M16 153.018c0-1.995 1.87-5.103 4.156-6.906 3.907-3.082 4.156-6.121 4.156-50.741 0-45.256-.194-47.527-4.156-48.836C17.87 45.78 16 43.528 16 41.532c0-2.877 4.853-3.628 23.377-3.616 12.857.008 26.908 1.253 31.225 2.767 35.544 12.467 38.836 85.084 4.858 107.169-8.693 5.65-13.577 6.729-34.787 7.684-20.04.903-24.673.43-24.673-2.518Zm53.2-15.606c9.261-10.927 12.044-20.517 12.125-41.779.058-15.197-.893-21.781-4.166-28.86-6.073-13.134-16.253-20.999-27.181-20.999h-9.043v100.379l11.445-1.199c8.36-.876 12.893-2.908 16.82-7.542Zm42.384-1.095c0-14.977.685-19.683 2.865-19.683 1.576 0 3.989 3.426 5.362 7.614 3.107 9.472 9.674 17.4 17.527 21.159 7.394 3.538 18.984-.568 22.055-7.815 5.912-13.952-1.089-25.882-20.76-35.375-18.366-8.864-24.971-18.016-24.971-34.599 0-24.804 21.874-38.941 42.458-27.441 8.199 4.581 9.857 4.82 10.846 1.566.642-2.113 2.469-3.842 4.062-3.842 2.196 0 2.894 4.396 2.894 18.216 0 10.019-.899 18.918-1.998 19.776-1.099.858-3.878-3.094-6.176-8.782-5.662-14.018-13.509-21.337-22.878-21.337-9.074 0-13.972 4.128-15.705 13.236-2.034 10.688 5.002 19.131 22.755 27.309C169.787 95.471 176 103.907 176 121.73c0 8.918-1.308 14.668-4.505 19.8-9.125 14.653-30.031 19.058-43.01 9.064l-6.995-5.386-2.993 5.396c-5.225 9.422-6.913 5.935-6.913-14.287Z"/></svg>

<svg
    xmlns="http://www.w3.org/2000/svg"
    viewBox="0 0 192 192"
    id="vector">
    <g id="group">
        <path
            id="path"
            d="M 16 153.018 C 16 151.023 17.87 147.915 20.156 146.112 C 24.063 143.03 24.312 139.991 24.312 95.371 C 24.312 50.115 24.118 47.844 20.156 46.535 C 17.87 45.78 16 43.528 16 41.532 C 16 38.655 20.853 37.904 39.377 37.916 C 52.234 37.924 66.285 39.169 70.602 40.683 C 106.146 53.15 109.438 125.767 75.46 147.852 C 66.767 153.502 61.883 154.581 40.673 155.536 C 20.633 156.439 16 155.966 16 153.018 Z M 69.2 137.412 C 78.461 126.485 81.244 116.895 81.325 95.633 C 81.383 80.436 80.432 73.852 77.159 66.773 C 71.086 53.639 60.906 45.774 49.978 45.774 L 40.935 45.774 L 40.935 146.153 L 52.38 144.954 C 60.74 144.078 65.273 142.046 69.2 137.412 Z M 111.584 136.317 C 111.584 121.34 112.269 116.634 114.449 116.634 C 116.025 116.634 118.438 120.06 119.811 124.248 C 122.918 133.72 129.485 141.648 137.338 145.407 C 144.732 148.945 156.322 144.839 159.393 137.592 C 165.305 123.64 158.304 111.71 138.633 102.217 C 120.267 93.353 113.662 84.201 113.662 67.618 C 113.662 42.814 135.536 28.677 156.12 40.177 C 164.319 44.758 165.977 44.997 166.966 41.743 C 167.608 39.63 169.435 37.901 171.028 37.901 C 173.224 37.901 173.922 42.297 173.922 56.117 C 173.922 66.136 173.023 75.035 171.924 75.893 C 170.825 76.751 168.046 72.799 165.748 67.111 C 160.086 53.093 152.239 45.774 142.87 45.774 C 133.796 45.774 128.898 49.902 127.165 59.01 C 125.131 69.698 132.167 78.141 149.92 86.319 C 169.787 95.471 176 103.907 176 121.73 C 176 130.648 174.692 136.398 171.495 141.53 C 162.37 156.183 141.464 160.588 128.485 150.594 L 121.49 145.208 L 118.497 150.604 C 113.272 160.026 111.584 156.539 111.584 136.317 Z"
            fill="#000000"
            stroke-width="12"/>
    </g>
</svg>
